!!!OTL: Es ritten drei Reiter zum Tore hinaus (3-53), S. 140f
!!!id: K1183
**kern
*clefG2
*k[b-]
*F:
{8c
=1
8.f
16f
8f
8f
8g
8a
=2
8.a
16g
8g
8g
8r
8cc
=3
[2a
8a]}
=4
{8c
=5
8.f
16f
8f
8f
8g
8a
=6
8.a
16g
8g
8g
8r
8cc
=7
[2a
8a]}
=8
{16f
16a
=9
8.cc
16cc
8cc
8cc
8dd
8cc
=10
8cc
8b-
8b-
4b-}
=11
{8cc
=12
8.a
16a
8a
8a
8cc
8b-
=13
8a
8g
8g
4g}
=14
{8cc
=15
4a
8a
8g
8f
8g
=16
4.f}
=17
{4.g
=18
8.a
16b-
8a
8g
8f
8g
=19
2f}
8r
==
*-
!!!minrhy: 16
!!!meters: 6/8 ]  ZZ[6
!!!cut: Es ritten drei Reiter zum Tore hinaus (3-53), S. 140f
!!!reg: Luxemburg
!!!trd: KINTZELE, Guillaume: An der Ucht, Bd. 3 Luxemburg 1928
!!!rhy1: X_  X_.XX_X_X_X_  X_.XX_X_0_X_  X___^_
!!!rhy2: X_  X_.XX_X_X_X_  X_.XX_X_0_X_  X___^_
!!!key: K1183  16  F 6/8 ]  ZZ[6
!!!mod: SECHSTONSKALA DUR ?]  AMBITUS[9
!!!kad: 334211
!!!akz: 113233_113233_5554_3332_321_23211_
!!!fot: 'a__a__b__bs'c__d__
!!!for: 'a__a__b__bv_c__aw_
!!!fok: '^a_^a_^a_\__\__^d_
!! PHRAS[AUFTAKTIG]
!!!fkt: Trennung
!!!bem: in der Quelle mit einer 2. Stimme versehen
!! KINTZELE
!! PR[15] 2K[12] 2G[12] 3K[3] 3G[3] 4A[6] 4Ü[0] 5A[0] 6K[3] 6G[3]
!! 7K[0] 7G[0] 8A[0] MEHR[0] SI[41] ABS[34] SR[24] SP[18]
!! ST[10] 2k[12] 2g[18] 3k[3] 3g[6] 4d[0] 4ü[3] 5d[0] 6k[3] 6g[0]
!! 7k[0] 7g[0] 8d[0] mehr[0] si[44] dm[-3] sr[29] sp[15]
!! 1F[35] 2F[45] 3F[15] 4F[0] LF[0] 2P[5] 3P[0] 4P[0] TRI[0] DF[4] AB[40]
!! TF[0] U3K[0] U3[0] U4[0] U4Ü[0] U5[3] U6K[0] U6[3] U7K[0] U7[9]
!! N1[17] N2K[0] N2[14] N3K[0] N3[20] N4[14] N4Ü[0] N5[11] N6K[0] N6[6]
!!!n7k: 0] N7[0] O1[3] O2K[0] O2[0] O3K[0] O3[0] HÖ[0
